X:1
T:Granby
T:G Major                    Alexander Gillet, 1794
T:Transcribed from Law's Christian Harmony, 1794.
T:Isaac Watts, 1719 )Psalm 95, Part 2)             66. 86. (S. M.)
%%score [ 1 2 3 ( 4 5 ) ]
L:1/8
Q:1/4=170
M:4/4
K:G
V:1 treble nm="Tr.\n1" snm="Tr.\n1"
V:2 treble nm="Tr.\n2" snm="Tr.\n2"
V:3 treble-8 nm="T." snm="T."
V:4 bass nm="B." snm="B."
V:5 bass 
V:1
 G4 | A6 A2 | B4 (B2 c2) | d6 B2 | c4 (A2 c2) | B4 A4 | G8 | z4 B4 | G6 G2 | E4 E4 | A4 (A2 G2) | %11
 F6 B2 | (d3 e d2) c2 | (B2 A2) (c2 B2) | A6 d2 | (e3 f g2) c2 | B4 A4 | G8 | z4 d4 | e6 d2 | %20
 e4 f4 | g6 d2 | e4 (B2 c2) | (d3 e d2) c2 | B8 | z4 D4 | G6 G2 | A6 A2 | (B2 A2) (B2 c2) | %29
 (d3 e d2) c2 | (B3 c B2) A2 | (G2 A2) (B2 c2) | d6 B2 | (c3 d e2) g2 | B8 | A8 | G8 |] %37
V:2
"_1. Come, sound his praise abroad,  And  hymns   of      glo – ry     sing;     Je–ho–vah is the sovereign God, The  u      –      ni  –  ver – sal  King, The  u     –     ni  –  ver – sal      King.     He" G4 | %1
 F6 F2 | G4 A4 | B6 G2 | (3(A2 B2 c2) (3(c2 B2 A2) | G4 F4 | G8 | z4 B4 | G6 G2 | E4 E4 | %10
 A4 (A2 G2) | F6 D2 | (G3 A B2) c2 | d4 G4 | F6 G2 | c4 (B2 A2) | G4 A4 | B8 | z4 (d2 B2) | %19
"_1. formed  the deeps  un –known;  He  gave  the   seas    their  bound;   The  wa–tery  worlds  are  all  his   own,       And  all             the   so  –  lid  ground, And  all    the         so  –  lid  ground." c6 c2 | %20
 (B2 G2) (A2 Bc) | B6 G2 | c4 (d2 c2) | (B3 c B2) A2 | G8 | z4 G4 | E6 E2 | D6 D2 | %28
 (G2 A2) (B2 c2) | A6 F2 | (G3 A B2) e2 | d4 c4 | B6 G2 | (c3 B A2) G2 | G8 | F8 | G8 |] %37
V:3
"_2. Come, worship  at  his  throne;  Come, bow be    –     fore  the Lord:  We are his works, and not our own; He  formed    us    by    his  word,   He  formed  us       by      his    word.      To –" B4 | %1
 d6 B2 | (e2 d2) (e2 f2) | g6 d2 | (3(e2 d2 c2) (3(c2 d2 e2) | d4 (d3 c) | B8 | z4 D4 | G6 A2 | %9
 B4 B4 | A4 (A2 B2) | A6 d2 | (B3 A G2) F2 | (G2 A2) (c2 B2) | A6 d2 | (c3 d e2) g2 | %16
 B4 (A3 B/c/) | B8 | z4 d4 | %19
"_2. – day   at – tend  his       voice,  Nor dare pro – voke          his  rod;    Come, like the  people   of      his     choice,     And  own        your  gra – cious God,  And own       your   gra–cious God." e6 d2 | %20
 (e2 g2) (3(f2 e2 d2) | d6 B2 | A4 F4 | (G3 A B2) c2 | d8 | z4 B4 | G6 B2 | c4 A4 | %28
 (e2 d2) (c2 B2) | A6 d2 | (e3 f g2) c2 | B4 A4 | G6 E2 | c4 (B2 de) | d8 | d8 | B8 |] %37
V:4
 G,4 | D,6 C,2 | B,,4 D,4 | G,6 G,2 | E,4 C,4 | D,4 D,4 | [G,,G,]8 | z4 D,4 | G,6 A,2 | B,4 B,4 | %10
 A,4 A,,4 | D,6 B,,2 | A,6 A,2 | G,4 (B,,2 C,2) | D,6 D,2 | (C3 A, B,2) C2 | D4 D,4 | [G,,G,]8 | %18
 z4 (D2 B,2) | C6 C2 | B,4 A,4 | G,6 B,2 | C4 C,4 | D,6 D,2 | [G,,G,]8 | z4 D,4 | G,6 G,2 | %27
 F,6 F,2 | E,4 E,4 | D,6 F,2 | G,6 E,2 | B,4 A,4 | G,6 B,,2 | E,6 C,2 | D,8 | D,8 | [G,,G,]8 |] %37
V:5
 x4 | x8 | x8 | G,,8 | x8 | x8 | x8 | x8 | G,,8 | G,,8 | A,,4 x4 | x8 | x8 | x8 | x8 | C,6 C,2 | %16
 D,4 x4 | x8 | x8 | x8 | x8 | x8 | x8 | x8 | x8 | x8 | x8 | x8 | x8 | x8 | x8 | x8 | x8 | x8 | x8 | %35
 x8 | x8 |] %37

